public/img/clients/thescore.svg

<svg xmlns="http://www.w3.org/2000/svg" focusable="false" role="img" viewBox="0 0 200 100" fill="currentColor">
  <path d="M30.37 43.376l-1.133 4.016h-2.872l-1.873 6.75c-.588 2.072-.702 2.578 2.055 2.857l-1.096 3.997-4.38.244c-5.79.343-6.853-1.155-5.604-5.613l2.272-8.235h-1.062l1.133-4.015h1.066l.955-3.44 9.146-1.874-1.465 5.314h2.86l-.002-.001zm17.18-.398c3.228-.057 5.7 1.092 4.595 5.11L50.3 54.7c-.476 1.706-.476 1.925.37 2.322l-1.104 3.934H40.36c.028-1.11-.188-1.02.88-4.806l.186-.674 1.428-5.145c.254-.896.58-2.274-1.465-2.444-.37 0-.74.06-1.135.2L38.4 54.7c-.486 1.592-.59 1.902.406 2.322l-1.103 3.934H26.938l1.103-3.934c1.247-.474 1.325-.897 1.69-2.213l3.227-11.556c.295-1.17.477-1.922-.474-2.31l1.096-3.94h9.755l-1.98 7.12c1.246-.51 2.964-1.118 6.194-1.146l.001.001zm18.235 6.756h-3.377c.628-2.23 1.246-2.518 2.347-2.484 1.55.023 1.44 1.04 1.03 2.484zm-12.106.19l-1.32 4.78c-.366 1.337-.586 2.424-.477 3.267.327 2.62 3.187 3.547 10.078 3.518 3.493-.023 7.13-.897 9.662-2.26l1.244-4.417h-8.66l-.18.652c-.553 1.974-1.58 1.948-2.176 1.916-1.404-.022-1.367-.83-1.035-2.004l.445-1.628h11.906l1.178-4.157c1.47-5.33-1.847-6.45-8.664-6.45-9.253 0-10.896 2.907-12 6.785v-.002zm36.191-8.227c-2.067-.03-2.578 1.763-2.465 2.355.256 1.39 4.664 1.896 6.99 2.536 4.59 1.29 5.218 3.635 4.333 6.715l-.033.113c-1.4 5.004-5.372 7.983-14.292 8.012-4.74.03-8.308-.834-10.666-2.505l1.77-6.434h9.55c-.144.61-.322 1.207-.472 1.793-.182.61-.548 1.954 1.5 1.985.73.026 1.946-.302 2.42-1.844.663-2.186-.765-2.576-4.725-3.334-3.825-.75-7.867-1.644-6.318-7.213 1.4-5.004 5.546-7.336 13.355-7.336 4.604 0 7.953.638 10.924 2.504l-1.57 5.645h-9.16l.11-.446c.514-1.846.18-2.523-1.25-2.547v.001zM114 48.486c.237-.828.277-1.367.036-1.66-.157-.3-.507-.44-1.13-.44-1.29 0-1.797.322-2.35 2.34l-1.668 5.943c-.58 2.13-.156 2.392 1.006 2.424 1.1 0 1.803-.322 2.54-2.987l.276-.976h8.644l-1.602 5.773c-2.504 1.544-6.107 2.525-11.52 2.554-9.174.03-9.524-3.143-8.51-6.85l1.75-6.212c1.106-3.91 3.45-6.348 11.978-6.377 5.448-.025 8.45 1.012 10.364 2.318l-1.398 5.096h-8.652l.158-.595.08-.35-.002-.001zm17.117 6.064l1.478-5.386c.473-1.565.816-2.814 2.54-2.776 1.138 0 1.603.497.947 2.776l-1.493 5.387c-.737 2.604-1.568 2.578-2.496 2.544-1.64-.032-1.48-.828-.977-2.543l.001-.002zm12.852-.588l1.364-4.856c1.487-5.3-.19-7.14-9.572-7.086-9.246.06-10.97 2.343-12.3 7.086l-1.365 4.855c-1.687 5.95.077 7.526 9.132 7.503 8.29-.035 11.096-1.697 12.74-7.504l.001.002zm18.181-11.985l1.044.088-1.755 6.377c-3.32 0-4.843.68-5.668 3.56l-.507 1.813c-.312 1.165-1.254 2.293.463 3.098l-1.166 4.167h-11.65l1.174-4.233c.547-.208 1.247-.415 1.838-2.47l1.48-5.284c.436-1.567.507-1.896-.424-2.46l1.164-4.238h9.887l-.427 1.48c1.646-1.54 2.823-1.898 4.547-1.898zm13.275 6.995h-3.604c.67-2.327 1.336-2.625 2.503-2.592 1.645.032 1.525 1.096 1.102 2.592h-.001zm-12.891.207l-1.4 5.066c-.395 1.427-.634 2.583-.513 3.472.353 2.793 3.405 3.768 10.736 3.745 3.714-.035 7.592-.952 10.307-2.405l1.32-4.69h-9.24l-.2.685c-.586 2.1-1.68 2.075-2.31 2.04-1.503-.03-1.455-.885-1.103-2.124l.478-1.723h12.68l1.26-4.416c1.565-5.614-1.955-6.813-9.244-6.813-9.834 0-11.6 3.09-12.77 7.162l-.001.001zM95.06 67.5l1.224-4.295H72.576l-1.22 4.294H95.06"/>
</svg>

<svg width="200" height="100" viewBox="0 0 200 100" fill="none" xmlns="http://www.w3.org/2000/svg">
<path d="M30.37 43.376L29.237 47.392H26.365L24.492 54.142C23.904 56.214 23.79 56.72 26.547 56.999L25.451 60.996L21.071 61.24C15.281 61.583 14.218 60.085 15.467 55.627L17.739 47.392H16.677L17.81 43.377H18.876L19.831 39.937L28.977 38.063L27.512 43.377H30.372L30.37 43.376ZM47.55 42.978C50.778 42.921 53.25 44.07 52.145 48.088L50.3 54.7C49.824 56.406 49.824 56.625 50.67 57.022L49.566 60.956H40.36C40.388 59.846 40.172 59.936 41.24 56.15L41.426 55.476L42.854 50.331C43.108 49.435 43.434 48.057 41.389 47.887C41.019 47.887 40.649 47.947 40.254 48.087L38.4 54.7C37.914 56.292 37.81 56.602 38.806 57.022L37.703 60.956H26.938L28.041 57.022C29.288 56.548 29.366 56.125 29.731 54.809L32.958 43.253C33.253 42.083 33.435 41.331 32.484 40.943L33.58 37.003H43.335L41.355 44.123C42.601 43.613 44.319 43.005 47.549 42.977L47.55 42.978ZM65.785 49.734H62.408C63.036 47.504 63.654 47.216 64.755 47.25C66.305 47.273 66.195 48.29 65.785 49.734ZM53.679 49.924L52.359 54.704C51.993 56.041 51.773 57.128 51.882 57.971C52.209 60.591 55.069 61.518 61.96 61.489C65.453 61.466 69.09 60.592 71.622 59.229L72.866 54.812H64.206L64.026 55.464C63.473 57.438 62.446 57.412 61.85 57.38C60.446 57.358 60.483 56.55 60.815 55.376L61.26 53.748H73.166L74.344 49.591C75.814 44.261 72.497 43.141 65.68 43.141C56.427 43.141 54.784 46.048 53.68 49.926L53.679 49.924ZM89.87 41.697C87.803 41.667 87.292 43.46 87.405 44.052C87.661 45.442 92.069 45.948 94.395 46.588C98.985 47.878 99.613 50.223 98.728 53.303L98.695 53.416C97.295 58.42 93.323 61.399 84.403 61.428C79.663 61.458 76.095 60.594 73.737 58.923L75.507 52.489H85.057C84.913 53.099 84.735 53.696 84.585 54.282C84.403 54.892 84.037 56.236 86.085 56.267C86.815 56.293 88.031 55.965 88.505 54.423C89.168 52.237 87.74 51.847 83.78 51.089C79.955 50.339 75.913 49.445 77.462 43.876C78.862 38.872 83.008 36.54 90.817 36.54C95.421 36.54 98.77 37.178 101.741 39.044L100.171 44.689H91.011L91.121 44.243C91.635 42.397 91.301 41.72 89.871 41.696L89.87 41.697ZM114 48.486C114.237 47.658 114.277 47.119 114.036 46.826C113.879 46.526 113.529 46.386 112.906 46.386C111.616 46.386 111.109 46.708 110.556 48.726L108.888 54.669C108.308 56.799 108.732 57.061 109.894 57.093C110.994 57.093 111.697 56.771 112.434 54.106L112.71 53.13H121.354L119.752 58.903C117.248 60.447 113.645 61.428 108.232 61.457C99.058 61.487 98.708 58.314 99.722 54.607L101.472 48.395C102.578 44.485 104.922 42.047 113.45 42.018C118.898 41.993 121.9 43.03 123.814 44.336L122.416 49.432H113.764L113.922 48.837L114.002 48.487L114 48.486ZM131.117 54.55L132.595 49.164C133.068 47.599 133.411 46.35 135.135 46.388C136.273 46.388 136.738 46.885 136.082 49.164L134.589 54.551C133.852 57.155 133.021 57.129 132.093 57.095C130.453 57.063 130.613 56.267 131.116 54.552L131.117 54.55ZM143.969 53.962L145.333 49.106C146.82 43.806 145.143 41.966 135.761 42.02C126.515 42.08 124.791 44.363 123.461 49.106L122.096 53.961C120.409 59.911 122.173 61.487 131.228 61.464C139.518 61.429 142.324 59.767 143.968 53.96L143.969 53.962ZM162.15 41.977L163.194 42.065L161.439 48.442C158.119 48.442 156.596 49.122 155.771 52.002L155.264 53.815C154.952 54.98 154.01 56.108 155.727 56.913L154.561 61.08H142.911L144.085 56.847C144.632 56.639 145.332 56.432 145.923 54.377L147.403 49.093C147.839 47.526 147.91 47.197 146.979 46.633L148.143 42.395H158.03L157.603 43.875C159.249 42.335 160.426 41.977 162.15 41.977H162.15ZM175.425 48.972H171.821C172.491 46.645 173.157 46.347 174.324 46.38C175.969 46.412 175.849 47.476 175.426 48.972H175.425ZM162.534 49.179L161.134 54.245C160.739 55.672 160.5 56.828 160.621 57.717C160.974 60.51 164.026 61.485 171.357 61.462C175.071 61.427 178.949 60.51 181.664 59.057L182.984 54.367H173.744L173.544 55.052C172.958 57.152 171.864 57.127 171.234 57.092C169.731 57.062 169.779 56.2071 170.131 54.968L170.609 53.245H183.289L184.549 48.829C186.114 43.2151 182.594 42.016 175.305 42.016C165.471 42.016 163.705 45.106 162.535 49.178L162.534 49.179ZM95.06 67.5L96.284 63.205H72.576L71.356 67.499H95.06" fill="black"/>
</svg>
